X:214
T:Maple Leaf
Z: id:dc-reel-195
M:C
L:1/8
K:E Dorian
E3F GEE2|B2AB AGED|EDEF GFGA|B2dB AGED|!
E3F GEE2|B2AB AGED|Beed BAA2|B2AB AGED:|!
Beed efg2|Beed edBA|Beed efge|a2eg fedA|!
Beed efg2|Beed edB2|a2eg fedA|B2AB AGED:|!

